; generated by PrusaSlicer 2.2.0+ on 2020-05-05 at 12:10:15 UTC

; 

; external perimeters extrusion width = 0.60mm
; perimeters extrusion width = 0.50mm
; infill extrusion width = 0.50mm
; solid infill extrusion width = 0.50mm
; top infill extrusion width = 0.45mm
; first layer extrusion width = 0.42mm

M73 P0 R237
M73 Q0 S239
M201 X1000 Y1000 Z1000 E5000 ; sets maximum accelerations, mm/sec^2
M203 X200 Y200 Z12 E120 ; sets maximum feedrates, mm/sec
M204 P1250 R1250 T1250 ; sets acceleration (P, T) and retract acceleration (R), mm/sec^2
M205 X8.00 Y8.00 Z0.40 E4.50 ; sets the jerk limits, mm/sec
M205 S0 T0 ; sets the minimum extruding and travel feed rate, mm/sec
M107
M862.3 P "MK3S" ; printer model check
M862.1 P0.4 ; nozzle diameter check
M115 U3.8.1 ; tell printer latest fw version
G90 ; use absolute coordinates
M83 ; extruder relative mode
M104 S215 ; set extruder temp
M140 S70 ; set bed temp
M190 S70 ; wait for bed temp
M109 S215 ; wait for extruder temp
G28 W ; home all without mesh bed level
G80 ; mesh bed leveling
G1 Y-3.0 F1000.0 ; go outside print area
G92 E0.0
G1 X60.0 E9.0 F1000.0 ; intro line
M73 Q0 S239
M73 P0 R237
G1 X100.0 E12.5 F1000.0 ; intro line
G92 E0.0
M221 S95
G21 ; set units to millimeters
G90 ; use absolute coordinates
M83 ; use relative distances for extrusion
M900 K30 ; Filament gcode
;BEFORE_LAYER_CHANGE
G92 E0.0
;0.2


G1 E-0.80000 F2100.00000
G1 Z0.600 F10800.000
;AFTER_LAYER_CHANGE
;0.2
G1 X16.834 Y91.093
G1 Z0.200
G1 E0.80000 F2100.00000
M204 S1000
G1 F1200.000
G1 X17.746 Y90.905 E0.02919
G1 X113.766 Y90.905 E3.01064
G1 X114.668 Y91.084 E0.02884
G1 X115.432 Y91.590 E0.02872
G1 X115.948 Y92.347 E0.02872
G1 X116.139 Y93.242 E0.02872
G1 X116.139 Y189.297 E3.01172
G1 X115.960 Y190.188 E0.02849
G1 X115.462 Y190.943 E0.02837
G1 X114.683 Y191.473 E0.02954
G1 X113.762 Y191.659 E0.02946
G1 X17.747 Y191.659 E3.01049
G1 X16.856 Y191.479 E0.02849
G1 X16.101 Y190.982 E0.02837
G1 X15.571 Y190.203 E0.02954
G1 X15.385 Y189.282 E0.02946
G1 X15.385 Y93.266 E3.01049
G1 X15.564 Y92.376 E0.02849
G1 X16.062 Y91.620 E0.02837
G1 X16.785 Y91.127 E0.02743
G1 X16.916 Y91.770 F10800.000
G1 F1200.000
G1 X17.461 Y91.585 E0.01806
G1 X114.086 Y91.588 E3.02961
G1 X114.324 Y91.644 E0.00767
G1 X114.644 Y91.795 E0.01109
G1 X115.163 Y92.283 E0.02233
G1 X115.318 Y92.524 E0.00898
G1 X115.459 Y92.979 E0.01495
G1 X115.459 Y189.584 E3.02897
G1 X115.318 Y190.040 E0.01496
G1 X115.164 Y190.279 E0.00892
G1 X114.758 Y190.685 E0.01800
G1 X114.609 Y190.793 E0.00579
G1 X114.063 Y190.978 E0.01806
G1 X17.460 Y190.978 E3.02893
G1 X17.004 Y190.838 E0.01496
G1 X16.765 Y190.684 E0.00892
G1 X16.359 Y190.278 E0.01800
G1 X16.251 Y190.128 E0.00579
G1 X16.065 Y189.583 E0.01806
G1 X16.065 Y92.979 E3.02893
G1 X16.206 Y92.523 E0.01496
G1 X16.360 Y92.284 E0.00892
G1 X16.766 Y91.878 E0.01800
G1 X16.867 Y91.805 E0.00391
G1 X17.110 Y92.094 F10800.000
G1 F1200.000
G1 X17.493 Y91.962 E0.01270
G1 X114.064 Y91.965 E3.02792
G1 X114.181 Y91.993 E0.00377
G1 X114.454 Y92.122 E0.00947
G1 X114.885 Y92.539 E0.01880
G1 X114.969 Y92.667 E0.00479
G1 X115.082 Y93.011 E0.01136
G1 X115.082 Y189.552 E3.02699
G1 X114.969 Y189.897 E0.01136
G1 X114.884 Y190.026 E0.00484
G1 X114.504 Y190.406 E0.01686
G1 X114.414 Y190.469 E0.00345
G1 X114.031 Y190.601 E0.01270
G1 X17.491 Y190.601 E3.02694
G1 X17.147 Y190.488 E0.01136
G1 X17.018 Y190.404 E0.00484
G1 X16.638 Y190.024 E0.01686
G1 X16.574 Y189.934 E0.00345
G1 X16.442 Y189.551 E0.01270
G1 X16.442 Y93.011 E3.02694
M73 Q0 S238
M73 P0 R236
G1 X16.555 Y92.667 E0.01136
G1 X16.640 Y92.537 E0.00484
G1 X17.061 Y92.128 E0.01841
G1 X17.299 Y92.420 F10800.000
G1 F1200.000
G1 X17.526 Y92.339 E0.00757
G1 X114.012 Y92.339 E3.02523
G1 X114.262 Y92.448 E0.00856
G1 X114.605 Y92.792 E0.01522
G1 X114.705 Y93.046 E0.00856
G1 X114.705 Y189.517 E3.02479
G1 X114.605 Y189.772 E0.00856
G1 X114.252 Y190.125 E0.01566
G1 X113.998 Y190.224 E0.00856
G1 X17.526 Y190.224 E3.02479
G1 X17.272 Y190.125 E0.00856
G1 X16.919 Y189.772 E0.01566
G1 X16.819 Y189.517 E0.00856
G1 X16.819 Y93.046 E3.02479
G1 X16.919 Y92.792 E0.00856
G1 X17.253 Y92.458 E0.01480
G1 X17.499 Y92.745 F10800.000
G1 F1200.000
G1 X17.568 Y92.716 E0.00235
G1 X113.956 Y92.716 E3.02216
G1 X114.025 Y92.745 E0.00235
G1 X114.299 Y93.019 E0.01215
G1 X114.328 Y93.088 E0.00235
G1 X114.328 Y189.475 E3.02216
G1 X114.299 Y189.545 E0.00235
G1 X114.025 Y189.819 E0.01215
G1 X113.956 Y189.847 E0.00235
G1 X17.568 Y189.847 E3.02216
G1 X17.499 Y189.819 E0.00235
G1 X17.225 Y189.545 E0.01215
G1 X17.196 Y189.475 E0.00235
G1 X17.196 Y93.088 E3.02216
G1 X17.225 Y93.019 E0.00235
G1 X17.457 Y92.787 E0.01027
G1 X17.684 Y93.093 F10800.000
G1 F1200.000
G1 X113.840 Y93.093 E3.01491
G1 X113.951 Y93.204 E0.00490
G1 X113.951 Y189.360 E3.01491
G1 X113.840 Y189.470 E0.00490
G1 X17.684 Y189.470 E3.01491
G1 X17.574 Y189.360 E0.00490
G1 X17.574 Y93.204 E3.01491
G1 X17.642 Y93.135 E0.00302
G1 X18.172 Y93.692 F10800.000
G1 F1200.000
G1 X113.352 Y93.692 E2.98430
M73 Q0 S237
M73 P0 R235
G1 X113.352 Y188.872 E2.98430
G1 X18.172 Y188.872 E2.98430
G1 X18.172 Y93.752 E2.98242
G1 X18.558 Y93.795 F10800.000
G1 X18.549 Y94.069
G1 F1200.000
G1 X112.975 Y94.069 E2.96066
G1 X112.975 Y188.495 E2.96066
G1 X18.549 Y188.495 E2.96066
G1 X18.549 Y94.129 E2.95877
G1 F8640.000
G1 X21.841 Y94.127 E-0.76000
G1 E-0.04000 F2100.00000
G1 Z0.800 F10800.000
G1 X112.862 Y94.945
G1 Z0.200
G1 E0.80000 F2100.00000
G1 F1200.000
G1 X112.268 Y94.351 E0.02635
G1 X111.734 Y94.351 E0.01676
G1 X112.692 Y95.309 E0.04252
G1 X112.692 Y95.843 E0.01676
G1 X111.200 Y94.351 E0.06623
G1 X110.667 Y94.351 E0.01676
G1 X112.692 Y96.377 E0.08993
G1 X112.692 Y96.911 E0.01676
G1 X110.133 Y94.351 E0.11363
G1 X109.599 Y94.351 E0.01676
G1 X112.692 Y97.445 E0.13734
G1 X112.692 Y97.979 E0.01676
G1 X109.065 Y94.351 E0.16104
G1 X108.531 Y94.351 E0.01676
G1 X112.692 Y98.513 E0.18475
G1 X112.692 Y99.047 E0.01676
G1 X107.997 Y94.351 E0.20845
G1 X107.463 Y94.351 E0.01676
G1 X112.692 Y99.581 E0.23215
G1 X112.692 Y100.115 E0.01676
G1 X106.929 Y94.351 E0.25586
G1 X106.395 Y94.351 E0.01676
G1 X112.692 Y100.649 E0.27956
G1 X112.692 Y101.182 E0.01676
G1 X105.861 Y94.351 E0.30327
G1 X105.327 Y94.351 E0.01676
G1 X112.692 Y101.716 E0.32697
G1 X112.692 Y102.250 E0.01676
G1 X104.793 Y94.351 E0.35067
G1 X104.259 Y94.351 E0.01676
G1 X112.692 Y102.784 E0.37438
G1 X112.692 Y103.318 E0.01676
G1 X103.726 Y94.351 E0.39808
G1 X103.192 Y94.351 E0.01676
G1 X112.692 Y103.852 E0.42178
G1 X112.692 Y104.386 E0.01676
G1 X102.658 Y94.351 E0.44549
G1 X102.124 Y94.351 E0.01676
G1 X112.692 Y104.920 E0.46919
G1 X112.692 Y105.454 E0.01676
G1 X101.590 Y94.351 E0.49290
G1 X101.056 Y94.351 E0.01676
G1 X112.692 Y105.988 E0.51660
G1 X112.692 Y106.522 E0.01676
G1 X100.522 Y94.351 E0.54030
G1 X99.988 Y94.351 E0.01676
G1 X112.692 Y107.056 E0.56401
G1 X112.692 Y107.589 E0.01676
G1 X99.454 Y94.351 E0.58771
G1 X98.920 Y94.351 E0.01676
G1 X112.692 Y108.123 E0.61142
G1 X112.692 Y108.657 E0.01676
G1 X98.386 Y94.351 E0.63512
G1 X97.852 Y94.351 E0.01676
G1 X112.692 Y109.191 E0.65882
G1 X112.692 Y109.725 E0.01676
G1 X97.319 Y94.351 E0.68253
G1 X96.785 Y94.351 E0.01676
G1 X112.692 Y110.259 E0.70623
G1 X112.692 Y110.793 E0.01676
G1 X96.251 Y94.351 E0.72994
G1 X95.717 Y94.351 E0.01676
G1 X112.692 Y111.327 E0.75364
G1 X112.692 Y111.861 E0.01676
G1 X95.183 Y94.351 E0.77734
G1 X94.649 Y94.351 E0.01676
G1 X112.692 Y112.395 E0.80105
G1 X112.692 Y112.929 E0.01676
G1 X94.115 Y94.351 E0.82475
G1 X93.581 Y94.351 E0.01676
G1 X112.692 Y113.463 E0.84846
M73 Q1 S236
M73 P1 R234
G1 X112.692 Y113.997 E0.01676
G1 X93.047 Y94.351 E0.87216
G1 X92.513 Y94.351 E0.01676
G1 X112.692 Y114.530 E0.89586
G1 X112.692 Y115.064 E0.01676
G1 X91.979 Y94.351 E0.91957
G1 X91.445 Y94.351 E0.01676
G1 X112.692 Y115.598 E0.94327
G1 X112.692 Y116.132 E0.01676
G1 X90.911 Y94.351 E0.96697
G1 X90.378 Y94.351 E0.01676
G1 X112.692 Y116.666 E0.99068
G1 X112.692 Y117.200 E0.01676
G1 X89.844 Y94.351 E1.01438
G1 X89.310 Y94.351 E0.01676
G1 X112.692 Y117.734 E1.03809
G1 X112.692 Y118.268 E0.01676
G1 X88.776 Y94.351 E1.06179
G1 X88.242 Y94.351 E0.01676
G1 X112.692 Y118.802 E1.08549
G1 X112.692 Y119.336 E0.01676
G1 X87.708 Y94.351 E1.10920
G1 X87.174 Y94.351 E0.01676
G1 X112.692 Y119.870 E1.13290
G1 X112.692 Y120.404 E0.01676
G1 X86.640 Y94.351 E1.15661
G1 X86.106 Y94.351 E0.01676
G1 X112.692 Y120.938 E1.18031
G1 X112.692 Y121.471 E0.01676
G1 X85.572 Y94.351 E1.20401
G1 X85.038 Y94.351 E0.01676
G1 X112.692 Y122.005 E1.22772
G1 X112.692 Y122.539 E0.01676
G1 X84.504 Y94.351 E1.25142
G1 X83.970 Y94.351 E0.01676
G1 X112.692 Y123.073 E1.27513
G1 X112.692 Y123.607 E0.01676
G1 X83.437 Y94.351 E1.29883
G1 X82.903 Y94.351 E0.01676
G1 X112.692 Y124.141 E1.32253
G1 X112.692 Y124.675 E0.01676
G1 X82.369 Y94.351 E1.34624
G1 X81.835 Y94.351 E0.01676
G1 X112.692 Y125.209 E1.36994
G1 X112.692 Y125.743 E0.01676
G1 X81.301 Y94.351 E1.39364
G1 X80.767 Y94.351 E0.01676
G1 X112.692 Y126.277 E1.41735
G1 X112.692 Y126.811 E0.01676
G1 X80.233 Y94.351 E1.44105
G1 X79.699 Y94.351 E0.01676
G1 X112.692 Y127.345 E1.46476
G1 X112.692 Y127.879 E0.01676
G1 X79.165 Y94.351 E1.48846
G1 X78.631 Y94.351 E0.01676
G1 X112.692 Y128.412 E1.51216
G1 X112.692 Y128.946 E0.01676
G1 X78.097 Y94.351 E1.53587
G1 X77.563 Y94.351 E0.01676
G1 X112.692 Y129.480 E1.55957
G1 X112.692 Y130.014 E0.01676
G1 X77.029 Y94.351 E1.58328
M73 Q1 S235
M73 P1 R233
G1 X76.496 Y94.351 E0.01676
G1 X112.692 Y130.548 E1.60698
G1 X112.692 Y131.082 E0.01676
G1 X75.962 Y94.351 E1.63068
G1 X75.428 Y94.351 E0.01676
G1 X112.692 Y131.616 E1.65439
G1 X112.692 Y132.150 E0.01676
G1 X74.894 Y94.351 E1.67809
G1 X74.360 Y94.351 E0.01676
G1 X112.692 Y132.684 E1.70180
G1 X112.692 Y133.218 E0.01676
G1 X73.826 Y94.351 E1.72550
G1 X73.292 Y94.351 E0.01676
G1 X112.692 Y133.752 E1.74920
G1 X112.692 Y134.286 E0.01676
G1 X72.758 Y94.351 E1.77291
G1 X72.224 Y94.351 E0.01676
G1 X112.692 Y134.820 E1.79661
G1 X112.692 Y135.353 E0.01676
G1 X71.690 Y94.351 E1.82032
G1 X71.156 Y94.351 E0.01676
G1 X112.692 Y135.887 E1.84402
G1 X112.692 Y136.421 E0.01676
G1 X70.622 Y94.351 E1.86772
G1 X70.088 Y94.351 E0.01676
G1 X112.692 Y136.955 E1.89143
G1 X112.692 Y137.489 E0.01676
G1 X69.555 Y94.351 E1.91513
G1 X69.021 Y94.351 E0.01676
G1 X112.692 Y138.023 E1.93883
G1 X112.692 Y138.557 E0.01676
G1 X68.487 Y94.351 E1.96254
G1 X67.953 Y94.351 E0.01676
G1 X112.692 Y139.091 E1.98624
G1 X112.692 Y139.625 E0.01676
G1 X67.419 Y94.351 E2.00995
G1 X66.885 Y94.351 E0.01676
G1 X112.692 Y140.159 E2.03365
G1 X112.692 Y140.693 E0.01676
G1 X66.351 Y94.351 E2.05735
G1 X65.817 Y94.351 E0.01676
G1 X112.692 Y141.227 E2.08106
M73 Q2 S234
M73 P2 R232
G1 X112.692 Y141.761 E0.01676
G1 X65.283 Y94.351 E2.10476
G1 X64.749 Y94.351 E0.01676
G1 X112.692 Y142.294 E2.12847
G1 X112.692 Y142.828 E0.01676
G1 X64.215 Y94.351 E2.15217
G1 X63.681 Y94.351 E0.01676
G1 X112.692 Y143.362 E2.17587
G1 X112.692 Y143.896 E0.01676
G1 X63.147 Y94.351 E2.19958
G1 X62.614 Y94.351 E0.01676
G1 X112.692 Y144.430 E2.22328
G1 X112.692 Y144.964 E0.01676
G1 X62.080 Y94.351 E2.24699
G1 X61.546 Y94.351 E0.01676
G1 X112.692 Y145.498 E2.27069
G1 X112.692 Y146.032 E0.01676
G1 X61.012 Y94.351 E2.29439
G1 X60.478 Y94.351 E0.01676
G1 X112.692 Y146.566 E2.31810
G1 X112.692 Y147.100 E0.01676
G1 X59.944 Y94.351 E2.34180
G1 X59.410 Y94.351 E0.01676
G1 X112.692 Y147.634 E2.36551
G1 X112.692 Y148.168 E0.01676
G1 X58.876 Y94.351 E2.38921
G1 X58.342 Y94.351 E0.01676
G1 X112.692 Y148.702 E2.41291
G1 X112.692 Y149.235 E0.01676
G1 X57.808 Y94.351 E2.43662
G1 X57.274 Y94.351 E0.01676
G1 X112.692 Y149.769 E2.46032
G1 X112.692 Y150.303 E0.01676
G1 X56.740 Y94.351 E2.48402
M73 Q2 S233
M73 P2 R231
G1 X56.206 Y94.351 E0.01676
G1 X112.692 Y150.837 E2.50773
G1 X112.692 Y151.371 E0.01676
G1 X55.673 Y94.351 E2.53143
G1 X55.139 Y94.351 E0.01676
G1 X112.692 Y151.905 E2.55514
G1 X112.692 Y152.439 E0.01676
G1 X54.605 Y94.351 E2.57884
G1 X54.071 Y94.351 E0.01676
G1 X112.692 Y152.973 E2.60254
G1 X112.692 Y153.507 E0.01676
G1 X53.537 Y94.351 E2.62625
G1 X53.003 Y94.351 E0.01676
G1 X112.692 Y154.041 E2.64995
G1 X112.692 Y154.575 E0.01676
G1 X52.469 Y94.351 E2.67366
G1 X51.935 Y94.351 E0.01676
G1 X112.692 Y155.109 E2.69736
G1 X112.692 Y155.642 E0.01676
G1 X51.401 Y94.351 E2.72106
G1 X50.867 Y94.351 E0.01676
G1 X112.692 Y156.176 E2.74477
G1 X112.692 Y156.710 E0.01676
G1 X50.333 Y94.351 E2.76847
G1 X49.799 Y94.351 E0.01676
G1 X112.692 Y157.244 E2.79218
G1 X112.692 Y157.778 E0.01676
G1 X49.266 Y94.351 E2.81588
G1 X48.732 Y94.351 E0.01676
G1 X112.692 Y158.312 E2.83958
M73 Q3 S232
M73 P3 R230
G1 X112.692 Y158.846 E0.01676
G1 X48.198 Y94.351 E2.86329
G1 X47.664 Y94.351 E0.01676
G1 X112.692 Y159.380 E2.88699
G1 X112.692 Y159.914 E0.01676
G1 X47.130 Y94.351 E2.91070
G1 X46.596 Y94.351 E0.01676
G1 X112.692 Y160.448 E2.93440
G1 X112.692 Y160.982 E0.01676
G1 X46.062 Y94.351 E2.95810
G1 X45.528 Y94.351 E0.01676
G1 X112.692 Y161.516 E2.98181
G1 X112.692 Y162.050 E0.01676
G1 X44.994 Y94.351 E3.00551
G1 X44.460 Y94.351 E0.01676
G1 X112.692 Y162.583 E3.02921
G1 X112.692 Y163.117 E0.01676
G1 X43.926 Y94.351 E3.05292
G1 X43.392 Y94.351 E0.01676
G1 X112.692 Y163.651 E3.07662
G1 X112.692 Y164.185 E0.01676
G1 X42.858 Y94.351 E3.10033
G1 X42.325 Y94.351 E0.01676
G1 X112.692 Y164.719 E3.12403
G1 X112.692 Y165.253 E0.01676
G1 X41.791 Y94.351 E3.14773
M73 Q3 S231
M73 P3 R229
G1 X41.257 Y94.351 E0.01676
G1 X112.692 Y165.787 E3.17144
G1 X112.692 Y166.321 E0.01676
G1 X40.723 Y94.351 E3.19514
G1 X40.189 Y94.351 E0.01676
G1 X112.692 Y166.855 E3.21885
G1 X112.692 Y167.389 E0.01676
G1 X39.655 Y94.351 E3.24255
G1 X39.121 Y94.351 E0.01676
G1 X112.692 Y167.923 E3.26625
G1 X112.692 Y168.457 E0.01676
G1 X38.587 Y94.351 E3.28996
G1 X38.053 Y94.351 E0.01676
G1 X112.692 Y168.991 E3.31366
G1 X112.692 Y169.524 E0.01676
G1 X37.519 Y94.351 E3.33737
G1 X36.985 Y94.351 E0.01676
G1 X112.692 Y170.058 E3.36107
G1 X112.692 Y170.592 E0.01676
G1 X36.451 Y94.351 E3.38477
G1 X35.917 Y94.351 E0.01676
G1 X112.692 Y171.126 E3.40848
G1 X112.692 Y171.660 E0.01676
G1 X35.384 Y94.351 E3.43218
M73 Q3 S230
M73 P3 R228
G1 X34.850 Y94.351 E0.01676
G1 X112.692 Y172.194 E3.45589
G1 X112.692 Y172.728 E0.01676
G1 X34.316 Y94.351 E3.47959
G1 X33.782 Y94.351 E0.01676
G1 X112.692 Y173.262 E3.50329
G1 X112.692 Y173.796 E0.01676
G1 X33.248 Y94.351 E3.52700
G1 X32.714 Y94.351 E0.01676
G1 X112.692 Y174.330 E3.55070
G1 X112.692 Y174.864 E0.01676
G1 X32.180 Y94.351 E3.57440
G1 X31.646 Y94.351 E0.01676
G1 X112.692 Y175.398 E3.59811
G1 X112.692 Y175.932 E0.01676
G1 X31.112 Y94.351 E3.62181
G1 X30.578 Y94.351 E0.01676
G1 X112.692 Y176.465 E3.64552
G1 X112.692 Y176.999 E0.01676
G1 X30.044 Y94.351 E3.66922
G1 X29.510 Y94.351 E0.01676
G1 X112.692 Y177.533 E3.69292
M73 Q4 S229
M73 P4 R227
G1 X112.692 Y178.067 E0.01676
G1 X28.976 Y94.351 E3.71663
G1 X28.443 Y94.351 E0.01676
G1 X112.692 Y178.601 E3.74033
G1 X112.692 Y179.135 E0.01676
G1 X27.909 Y94.351 E3.76404
G1 X27.375 Y94.351 E0.01676
G1 X112.692 Y179.669 E3.78774
G1 X112.692 Y180.203 E0.01676
G1 X26.841 Y94.351 E3.81144
G1 X26.307 Y94.351 E0.01676
G1 X112.692 Y180.737 E3.83515
G1 X112.692 Y181.271 E0.01676
G1 X25.773 Y94.351 E3.85885
G1 X25.239 Y94.351 E0.01676
G1 X112.692 Y181.805 E3.88256
G1 X112.692 Y182.339 E0.01676
G1 X24.705 Y94.351 E3.90626
G1 X24.171 Y94.351 E0.01676
G1 X112.692 Y182.873 E3.92996
M73 Q4 S228
M73 P4 R226
G1 X112.692 Y183.406 E0.01676
G1 X23.637 Y94.351 E3.95367
G1 X23.103 Y94.351 E0.01676
G1 X112.692 Y183.940 E3.97737
G1 X112.692 Y184.474 E0.01676
G1 X22.569 Y94.351 E4.00107
G1 X22.035 Y94.351 E0.01676
G1 X112.692 Y185.008 E4.02478
G1 X112.692 Y185.542 E0.01676
G1 X21.502 Y94.351 E4.04848
G1 X20.968 Y94.351 E0.01676
G1 X112.692 Y186.076 E4.07219
G1 X112.692 Y186.610 E0.01676
G1 X20.434 Y94.351 E4.09589
G1 X19.900 Y94.351 E0.01676
G1 X112.692 Y187.144 E4.11959
G1 X112.692 Y187.678 E0.01676
G1 X19.366 Y94.351 E4.14330
G1 X18.832 Y94.351 E0.01676
G1 X112.692 Y188.212 E4.16700
M73 Q5 S226
M73 P5 R224
G1 X112.158 Y188.212 E0.01676
G1 X18.832 Y94.885 E4.14330
G1 X18.832 Y95.419 E0.01676
G1 X111.624 Y188.212 E4.11959
G1 X111.090 Y188.212 E0.01676
G1 X18.832 Y95.953 E4.09589
