; generated by PrusaSlicer 2.2.0+ on 2020-05-05 at 17:59:30 UTC

; 

; external perimeters extrusion width = 0.60mm
; perimeters extrusion width = 0.50mm
; infill extrusion width = 0.50mm
; solid infill extrusion width = 0.50mm
; top infill extrusion width = 0.45mm
; first layer extrusion width = 0.42mm

M73 P0 R223
M73 Q0 S225
M201 X1000 Y1000 Z1000 E5000 ; sets maximum accelerations, mm/sec^2
M203 X200 Y200 Z12 E120 ; sets maximum feedrates, mm/sec
M204 P1250 R1250 T1250 ; sets acceleration (P, T) and retract acceleration (R), mm/sec^2
M205 X8.00 Y8.00 Z0.40 E4.50 ; sets the jerk limits, mm/sec
M205 S0 T0 ; sets the minimum extruding and travel feed rate, mm/sec
M107
M862.3 P "MK3S" ; printer model check
M862.1 P0.4 ; nozzle diameter check
M115 U3.8.1 ; tell printer latest fw version
G90 ; use absolute coordinates
M83 ; extruder relative mode
M104 S215 ; set extruder temp
M140 S70 ; set bed temp
M190 S70 ; wait for bed temp
M109 S215 ; wait for extruder temp
G28 W ; home all without mesh bed level
G80 ; mesh bed leveling
G1 Y-3.0 F1000.0 ; go outside print area
G92 E0.0
G1 X60.0 E9.0 F1000.0 ; intro line
M73 Q0 S225
M73 P0 R222
G1 X100.0 E12.5 F1000.0 ; intro line
G92 E0.0
M221 S95
G21 ; set units to millimeters
G90 ; use absolute coordinates
M83 ; use relative distances for extrusion
M900 K30 ; Filament gcode
;BEFORE_LAYER_CHANGE
G92 E0.0
;0.2


G1 E-0.80000 F2100.00000
G1 Z0.600 F10800.000
;AFTER_LAYER_CHANGE
;0.2
G1 X132.982 Y11.582
G1 Z0.200
G1 E0.80000 F2100.00000
M204 S1000
G1 F1200.000
G1 X133.894 Y11.393 E0.02919
G1 X229.914 Y11.393 E3.01064
G1 X230.816 Y11.572 E0.02884
G1 X231.580 Y12.078 E0.02872
G1 X232.096 Y12.835 E0.02872
G1 X232.287 Y13.731 E0.02872
G1 X232.287 Y109.785 E3.01172
G1 X232.108 Y110.676 E0.02849
G1 X231.610 Y111.431 E0.02837
G1 X230.831 Y111.961 E0.02954
G1 X229.910 Y112.147 E0.02946
G1 X133.895 Y112.147 E3.01049
G1 X133.004 Y111.968 E0.02849
G1 X132.249 Y111.470 E0.02837
G1 X131.719 Y110.691 E0.02954
G1 X131.533 Y109.770 E0.02946
G1 X131.533 Y13.755 E3.01049
G1 X131.713 Y12.864 E0.02849
G1 X132.210 Y12.108 E0.02837
G1 X132.933 Y11.615 E0.02743
G1 X133.064 Y12.258 F10800.000
G1 F1200.000
G1 X133.609 Y12.073 E0.01806
G1 X230.234 Y12.077 E3.02961
G1 X230.472 Y12.132 E0.00767
G1 X230.792 Y12.283 E0.01109
G1 X231.311 Y12.771 E0.02233
G1 X231.466 Y13.012 E0.00898
G1 X231.607 Y13.468 E0.01495
G1 X231.607 Y110.072 E3.02897
G1 X231.466 Y110.528 E0.01496
G1 X231.312 Y110.768 E0.00892
G1 X230.906 Y111.173 E0.01800
G1 X230.757 Y111.282 E0.00579
G1 X230.211 Y111.467 E0.01806
G1 X133.608 Y111.467 E3.02893
G1 X133.152 Y111.326 E0.01496
G1 X132.913 Y111.172 E0.00892
G1 X132.507 Y110.766 E0.01800
G1 X132.399 Y110.616 E0.00579
G1 X132.213 Y110.071 E0.01806
G1 X132.213 Y13.468 E3.02893
G1 X132.354 Y13.012 E0.01496
G1 X132.508 Y12.772 E0.00892
G1 X132.914 Y12.366 E0.01800
G1 X133.015 Y12.294 E0.00391
G1 X133.258 Y12.582 F10800.000
G1 F1200.000
G1 X133.641 Y12.450 E0.01270
G1 X230.212 Y12.454 E3.02792
G1 X230.329 Y12.481 E0.00377
G1 X230.602 Y12.610 E0.00947
G1 X231.033 Y13.027 E0.01880
G1 X231.117 Y13.155 E0.00479
G1 X231.230 Y13.499 E0.01136
G1 X231.230 Y110.041 E3.02699
G1 X231.117 Y110.385 E0.01136
G1 X231.033 Y110.514 E0.00484
G1 X230.652 Y110.895 E0.01686
G1 X230.562 Y110.958 E0.00345
G1 X230.180 Y111.090 E0.01270
G1 X133.640 Y111.090 E3.02694
G1 X133.295 Y110.977 E0.01136
G1 X133.166 Y110.892 E0.00484
G1 X132.786 Y110.512 E0.01686
G1 X132.723 Y110.422 E0.00345
G1 X132.590 Y110.039 E0.01270
G1 X132.590 Y13.499 E3.02694
M73 Q0 S224
M73 P0 R221
G1 X132.704 Y13.155 E0.01136
G1 X132.788 Y13.026 E0.00484
G1 X133.209 Y12.617 E0.01841
G1 X133.447 Y12.909 F10800.000
G1 F1200.000
G1 X133.675 Y12.827 E0.00757
G1 X230.160 Y12.827 E3.02523
G1 X230.410 Y12.937 E0.00856
G1 X230.753 Y13.280 E0.01522
G1 X230.853 Y13.534 E0.00856
G1 X230.853 Y110.006 E3.02479
G1 X230.753 Y110.260 E0.00856
G1 X230.400 Y110.613 E0.01566
G1 X230.146 Y110.713 E0.00856
G1 X133.675 Y110.713 E3.02479
G1 X133.420 Y110.613 E0.00856
G1 X133.067 Y110.260 E0.01566
G1 X132.968 Y110.006 E0.00856
G1 X132.968 Y13.534 E3.02479
G1 X133.067 Y13.280 E0.00856
G1 X133.401 Y12.946 E0.01480
G1 X133.647 Y13.233 F10800.000
G1 F1200.000
G1 X133.717 Y13.204 E0.00235
G1 X230.104 Y13.204 E3.02216
G1 X230.173 Y13.233 E0.00235
G1 X230.447 Y13.507 E0.01215
G1 X230.476 Y13.576 E0.00235
G1 X230.476 Y109.964 E3.02216
G1 X230.447 Y110.033 E0.00235
G1 X230.173 Y110.307 E0.01215
G1 X230.104 Y110.336 E0.00235
G1 X133.717 Y110.336 E3.02216
G1 X133.647 Y110.307 E0.00235
G1 X133.373 Y110.033 E0.01215
G1 X133.345 Y109.964 E0.00235
G1 X133.345 Y13.576 E3.02216
G1 X133.373 Y13.507 E0.00235
G1 X133.605 Y13.275 E0.01027
G1 X133.832 Y13.581 F10800.000
G1 F1200.000
G1 X229.988 Y13.581 E3.01491
G1 X230.099 Y13.692 E0.00490
G1 X230.099 Y109.848 E3.01491
G1 X229.988 Y109.959 E0.00490
G1 X133.832 Y109.959 E3.01491
G1 X133.722 Y109.848 E0.00490
G1 X133.722 Y13.692 E3.01491
G1 X133.790 Y13.624 E0.00302
G1 X134.320 Y14.180 F10800.000
G1 F1200.000
G1 X229.500 Y14.180 E2.98430
M73 Q0 S223
M73 P0 R220
G1 X229.500 Y109.360 E2.98430
G1 X134.320 Y109.360 E2.98430
G1 X134.320 Y14.240 E2.98242
G1 X134.707 Y14.283 F10800.000
G1 X134.697 Y14.557
G1 F1200.000
G1 X229.123 Y14.557 E2.96066
G1 X229.123 Y108.983 E2.96066
G1 X134.697 Y108.983 E2.96066
G1 X134.697 Y14.617 E2.95877
G1 F8640.000
G1 X137.989 Y14.615 E-0.76000
G1 E-0.04000 F2100.00000
G1 Z0.800 F10800.000
G1 X173.846 Y97.750
G1 Z0.200
G1 E0.80000 F2100.00000
G1 F1200.000
G1 X174.256 Y97.589 E0.01379
G1 X174.679 Y97.470 E0.01378
G1 X175.112 Y97.394 E0.01379
G1 X175.550 Y97.361 E0.01379
G1 X175.990 Y97.372 E0.01379
G1 X176.426 Y97.426 E0.01379
G1 X176.855 Y97.524 E0.01379
G1 X177.272 Y97.664 E0.01379
G1 X177.672 Y97.845 E0.01378
G1 X178.053 Y98.065 E0.01379
G1 X178.410 Y98.322 E0.01379
G1 X178.740 Y98.613 E0.01378
G1 X179.039 Y98.935 E0.01379
G1 X179.304 Y99.285 E0.01379
G1 X179.534 Y99.661 E0.01379
G1 X179.724 Y100.057 E0.01379
G1 X179.875 Y100.470 E0.01379
G1 X179.983 Y100.896 E0.01379
G1 X180.049 Y101.331 E0.01379
G1 X180.071 Y101.770 E0.01379
G1 X180.049 Y102.209 E0.01379
G1 X179.983 Y102.644 E0.01379
G1 X179.875 Y103.070 E0.01379
G1 X179.724 Y103.483 E0.01379
G1 X179.534 Y103.879 E0.01379
G1 X179.304 Y104.255 E0.01379
G1 X179.039 Y104.605 E0.01379
G1 X178.740 Y104.927 E0.01379
G1 X178.410 Y105.218 E0.01378
G1 X178.053 Y105.475 E0.01379
G1 X177.672 Y105.695 E0.01379
G1 X177.272 Y105.876 E0.01378
G1 X176.855 Y106.016 E0.01379
G1 X176.426 Y106.113 E0.01379
G1 X175.990 Y106.168 E0.01379
G1 X175.550 Y106.179 E0.01379
G1 X175.112 Y106.146 E0.01379
G1 X174.679 Y106.070 E0.01379
G1 X174.256 Y105.951 E0.01378
G1 X173.846 Y105.790 E0.01379
G1 X173.455 Y105.590 E0.01379
G1 X173.086 Y105.351 E0.01379
G1 X172.742 Y105.077 E0.01378
G1 X172.427 Y104.770 E0.01379
G1 X172.145 Y104.433 E0.01379
G1 X171.897 Y104.070 E0.01379
G1 X171.687 Y103.684 E0.01379
G1 X171.516 Y103.278 E0.01379
G1 X171.386 Y102.858 E0.01379
G1 X171.299 Y102.427 E0.01378
G1 X171.255 Y101.990 E0.01379
G1 X171.255 Y101.550 E0.01379
G1 X171.299 Y101.113 E0.01379
G1 X171.386 Y100.682 E0.01378
G1 X171.516 Y100.261 E0.01379
G1 X171.687 Y99.856 E0.01378
G1 X171.897 Y99.470 E0.01379
G1 X172.145 Y99.107 E0.01379
G1 X172.427 Y98.770 E0.01379
G1 X172.742 Y98.463 E0.01379
G1 X173.086 Y98.189 E0.01378
G1 X173.455 Y97.950 E0.01379
G1 X173.793 Y97.777 E0.01191
G1 X173.886 Y97.352 F10800.000
G1 X173.621 Y97.442
G1 F1200.000
G1 X174.135 Y97.231 E0.01742
G1 X174.595 Y97.102 E0.01496
G1 X175.065 Y97.019 E0.01497
G1 X175.541 Y96.983 E0.01497
G1 X176.018 Y96.995 E0.01497
G1 X176.492 Y97.055 E0.01496
G1 X176.957 Y97.161 E0.01497
G1 X177.410 Y97.313 E0.01497
G1 X177.845 Y97.509 E0.01496
G1 X178.258 Y97.748 E0.01497
G1 X178.646 Y98.027 E0.01497
G1 X179.003 Y98.342 E0.01496
G1 X179.328 Y98.692 E0.01497
G1 X179.616 Y99.073 E0.01497
G1 X179.865 Y99.480 E0.01497
G1 X180.072 Y99.910 E0.01496
G1 X180.236 Y100.359 E0.01496
G1 X180.353 Y100.821 E0.01497
G1 X180.425 Y101.293 E0.01497
G1 X180.448 Y101.770 E0.01497
G1 X180.425 Y102.247 E0.01497
G1 X180.353 Y102.719 E0.01497
G1 X180.236 Y103.181 E0.01497
G1 X180.072 Y103.630 E0.01496
G1 X179.865 Y104.060 E0.01496
G1 X179.616 Y104.467 E0.01497
G1 X179.328 Y104.848 E0.01497
G1 X179.003 Y105.198 E0.01497
G1 X178.646 Y105.513 E0.01496
G1 X178.258 Y105.792 E0.01497
G1 X177.845 Y106.031 E0.01497
G1 X177.410 Y106.227 E0.01496
G1 X176.957 Y106.379 E0.01497
G1 X176.492 Y106.485 E0.01497
G1 X176.018 Y106.545 E0.01496
G1 X175.541 Y106.557 E0.01497
G1 X175.065 Y106.521 E0.01497
G1 X174.595 Y106.438 E0.01497
G1 X174.135 Y106.309 E0.01496
G1 X173.691 Y106.134 E0.01497
G1 X173.266 Y105.917 E0.01497
G1 X172.865 Y105.657 E0.01497
G1 X172.492 Y105.360 E0.01496
G1 X172.150 Y105.027 E0.01497
G1 X171.844 Y104.661 E0.01497
G1 X171.575 Y104.267 E0.01497
G1 X171.346 Y103.847 E0.01497
G1 X171.161 Y103.408 E0.01497
G1 X171.020 Y102.951 E0.01497
G1 X170.926 Y102.484 E0.01496
G1 X170.878 Y102.009 E0.01497
G1 X170.878 Y101.531 E0.01497
G1 X170.926 Y101.056 E0.01497
G1 X171.020 Y100.589 E0.01496
G1 X171.161 Y100.132 E0.01497
G1 X171.346 Y99.693 E0.01497
G1 X171.575 Y99.273 E0.01497
G1 X171.844 Y98.879 E0.01497
G1 X172.150 Y98.513 E0.01497
G1 X172.492 Y98.180 E0.01497
G1 X172.865 Y97.882 E0.01496
G1 X173.266 Y97.623 E0.01497
G1 X173.568 Y97.469 E0.01062
G1 F8640.000
G1 X174.135 Y97.231 E-0.14213
G1 X174.595 Y97.102 E-0.11019
G1 X175.065 Y97.019 E-0.11022
G1 X175.541 Y96.983 E-0.11026
G1 X176.018 Y96.995 E-0.11021
G1 X176.492 Y97.055 E-0.11020
G1 X176.774 Y97.119 E-0.06679
G1 E-0.04000 F2100.00000
G1 Z0.800 F10800.000
G1 X175.550 Y26.189
G1 Z0.200
G1 E0.80000 F2100.00000
G1 F1200.000
G1 X175.112 Y26.156 E0.01379
G1 X174.679 Y26.080 E0.01379
G1 X174.256 Y25.961 E0.01378
G1 X173.846 Y25.800 E0.01379
G1 X173.455 Y25.600 E0.01379
G1 X173.086 Y25.361 E0.01379
G1 X172.742 Y25.087 E0.01379
G1 X172.427 Y24.780 E0.01379
G1 X172.145 Y24.443 E0.01379
G1 X171.897 Y24.080 E0.01379
G1 X171.687 Y23.694 E0.01379
G1 X171.516 Y23.288 E0.01379
G1 X171.386 Y22.868 E0.01379
G1 X171.299 Y22.437 E0.01379
G1 X171.255 Y22.000 E0.01379
G1 X171.255 Y21.560 E0.01379
G1 X171.299 Y21.123 E0.01379
G1 X171.386 Y20.692 E0.01379
G1 X171.516 Y20.271 E0.01379
G1 X171.687 Y19.866 E0.01379
G1 X171.897 Y19.480 E0.01379
G1 X172.145 Y19.117 E0.01379
G1 X172.427 Y18.780 E0.01378
G1 X172.742 Y18.473 E0.01379
G1 X173.086 Y18.199 E0.01378
G1 X173.455 Y17.960 E0.01379
G1 X173.846 Y17.760 E0.01379
G1 X174.256 Y17.599 E0.01379
G1 X174.679 Y17.480 E0.01378
G1 X175.112 Y17.404 E0.01379
G1 X175.550 Y17.371 E0.01379
G1 X175.990 Y17.382 E0.01379
G1 X176.426 Y17.436 E0.01379
G1 X176.855 Y17.534 E0.01379
G1 X177.272 Y17.674 E0.01379
G1 X177.672 Y17.855 E0.01378
G1 X178.053 Y18.075 E0.01379
G1 X178.410 Y18.332 E0.01379
G1 X178.740 Y18.623 E0.01378
G1 X179.039 Y18.945 E0.01379
G1 X179.304 Y19.295 E0.01379
G1 X179.534 Y19.671 E0.01379
G1 X179.724 Y20.067 E0.01379
G1 X179.875 Y20.480 E0.01379
G1 X179.983 Y20.906 E0.01379
G1 X180.049 Y21.341 E0.01379
G1 X180.071 Y21.780 E0.01379
G1 X180.049 Y22.219 E0.01379
G1 X179.983 Y22.654 E0.01379
G1 X179.875 Y23.080 E0.01379
G1 X179.724 Y23.493 E0.01379
G1 X179.534 Y23.889 E0.01379
G1 X179.304 Y24.265 E0.01379
G1 X179.039 Y24.615 E0.01379
G1 X178.740 Y24.937 E0.01379
G1 X178.410 Y25.228 E0.01378
G1 X178.053 Y25.485 E0.01379
G1 X177.672 Y25.705 E0.01379
G1 X177.272 Y25.886 E0.01378
G1 X176.855 Y26.026 E0.01379
G1 X176.426 Y26.123 E0.01379
G1 X175.990 Y26.178 E0.01379
G1 X175.610 Y26.188 E0.01190
G1 X175.342 Y26.530 F10800.000
G1 X175.620 Y26.565
G1 F1200.000
G1 X175.065 Y26.531 E0.01743
G1 X174.595 Y26.448 E0.01497
G1 X174.135 Y26.319 E0.01496
G1 X173.691 Y26.144 E0.01496
G1 X173.266 Y25.927 E0.01497
G1 X172.865 Y25.668 E0.01497
G1 X172.492 Y25.370 E0.01497
G1 X172.150 Y25.037 E0.01496
G1 X171.844 Y24.671 E0.01497
G1 X171.575 Y24.277 E0.01497
G1 X171.346 Y23.857 E0.01497
G1 X171.161 Y23.418 E0.01497
G1 X171.020 Y22.961 E0.01497
G1 X170.926 Y22.494 E0.01497
G1 X170.878 Y22.019 E0.01497
G1 X170.878 Y21.541 E0.01497
G1 X170.926 Y21.066 E0.01497
G1 X171.020 Y20.599 E0.01497
G1 X171.161 Y20.142 E0.01497
G1 X171.346 Y19.703 E0.01497
G1 X171.575 Y19.283 E0.01497
G1 X171.844 Y18.889 E0.01497
G1 X172.150 Y18.523 E0.01496
G1 X172.492 Y18.190 E0.01497
G1 X172.865 Y17.892 E0.01496
G1 X173.266 Y17.633 E0.01497
G1 X173.691 Y17.416 E0.01497
G1 X174.135 Y17.241 E0.01497
G1 X174.595 Y17.112 E0.01496
G1 X175.065 Y17.029 E0.01497
G1 X175.541 Y16.993 E0.01497
G1 X176.018 Y17.005 E0.01497
G1 X176.492 Y17.065 E0.01497
G1 X176.957 Y17.171 E0.01497
G1 X177.410 Y17.323 E0.01497
G1 X177.845 Y17.519 E0.01496
G1 X178.258 Y17.758 E0.01497
G1 X178.646 Y18.037 E0.01497
G1 X179.003 Y18.352 E0.01496
G1 X179.328 Y18.702 E0.01497
G1 X179.616 Y19.083 E0.01497
G1 X179.865 Y19.490 E0.01497
G1 X180.072 Y19.920 E0.01497
G1 X180.236 Y20.369 E0.01497
G1 X180.353 Y20.831 E0.01497
G1 X180.425 Y21.303 E0.01497
G1 X180.448 Y21.780 E0.01497
G1 X180.425 Y22.257 E0.01497
G1 X180.353 Y22.729 E0.01497
G1 X180.236 Y23.191 E0.01497
G1 X180.072 Y23.640 E0.01497
G1 X179.865 Y24.070 E0.01496
G1 X179.616 Y24.477 E0.01497
G1 X179.328 Y24.858 E0.01497
G1 X179.003 Y25.208 E0.01497
G1 X178.646 Y25.523 E0.01496
G1 X178.258 Y25.802 E0.01497
G1 X177.845 Y26.041 E0.01497
G1 X177.410 Y26.237 E0.01496
G1 X176.957 Y26.389 E0.01497
G1 X176.492 Y26.495 E0.01497
G1 X176.018 Y26.555 E0.01496
G1 X175.680 Y26.563 E0.01061
G1 F8640.000
G1 X175.065 Y26.531 E-0.14219
G1 X174.595 Y26.448 E-0.11022
G1 X174.135 Y26.319 E-0.11019
G1 X173.691 Y26.144 E-0.11021
G1 X173.266 Y25.927 E-0.11021
G1 X172.865 Y25.668 E-0.11025
G1 X172.639 Y25.487 E-0.06674
G1 E-0.04000 F2100.00000
G1 Z0.800 F10800.000
G1 X169.820 Y32.465
G1 Z0.200
G1 E0.80000 F2100.00000
G1 F1200.000
G1 X175.039 Y32.465 E0.16362
G1 X175.410 Y32.480 E0.01166
G1 X175.886 Y32.549 E0.01507
G1 X176.335 Y32.675 E0.01461
G1 X176.752 Y32.859 E0.01430
G1 X177.130 Y33.097 E0.01400
G1 X177.387 Y33.310 E0.01046
G1 X177.617 Y33.548 E0.01038
G1 X177.820 Y33.812 E0.01044
G1 X177.995 Y34.100 E0.01058
G1 X178.143 Y34.410 E0.01076
G1 X178.261 Y34.739 E0.01094
G1 X178.350 Y35.084 E0.01118
G1 X178.410 Y35.446 E0.01150
G1 X178.442 Y35.824 E0.01190
G1 X178.443 Y36.333 E0.01596
G1 X178.412 Y36.699 E0.01151
G1 X178.353 Y37.050 E0.01117
G1 X178.234 Y37.490 E0.01430
G1 X178.110 Y37.806 E0.01063
G1 X177.958 Y38.102 E0.01044
G1 X177.778 Y38.379 E0.01038
G1 X177.426 Y38.776 E0.01663
G1 X177.174 Y38.986 E0.01026
G1 X176.899 Y39.169 E0.01038
G1 X176.403 Y39.401 E0.01716
G1 X176.074 Y39.501 E0.01078
G1 X175.730 Y39.568 E0.01099
G1 X175.140 Y39.609 E0.01855
G1 X169.820 Y39.609 E0.16679
G1 X169.820 Y37.750 E0.05829
G1 X175.161 Y37.748 E0.16745
G1 X175.484 Y37.721 E0.01016
G1 X175.762 Y37.663 E0.00891
G1 X175.998 Y37.578 E0.00787
G1 X176.196 Y37.468 E0.00711
G1 X176.360 Y37.335 E0.00661
G1 X176.542 Y37.109 E0.00908
G1 X176.643 Y36.912 E0.00695
G1 X176.720 Y36.677 E0.00776
G1 X176.768 Y36.403 E0.00874
G1 X176.785 Y36.088 E0.00987
G1 X176.768 Y35.763 E0.01020
G1 X176.717 Y35.477 E0.00912
G1 X176.636 Y35.228 E0.00820
G1 X176.529 Y35.016 E0.00746
G1 X176.335 Y34.769 E0.00983
G1 X176.162 Y34.623 E0.00710
G1 X175.956 Y34.504 E0.00747
G1 X175.712 Y34.412 E0.00818
G1 X175.425 Y34.350 E0.00919
G1 X175.093 Y34.320 E0.01046
G1 X169.820 Y34.318 E0.16532
G1 X169.820 Y32.525 E0.05622
G1 X169.661 Y32.098 F10800.000
G1 F8640.000
G1 X173.111 Y32.487 E-0.76000
G1 E-0.04000 F2100.00000
G1 Z0.800 F10800.000
G1 X172.187 Y40.028
G1 Z0.200
G1 E0.80000 F2100.00000
G1 F1200.000
G1 X172.511 Y41.865 E0.05849
G1 X171.985 Y42.034 E0.01730
G1 X171.800 Y42.130 E0.00655
G1 X171.657 Y42.246 E0.00576
G1 X171.515 Y42.431 E0.00731
G1 X171.405 Y42.682 E0.00861
G1 X171.342 Y42.941 E0.00834
G1 X171.299 Y43.348 E0.01285
G1 X171.300 Y43.736 E0.01217
G1 X171.334 Y44.098 E0.01138
G1 X171.399 Y44.393 E0.00949
G1 X171.488 Y44.623 E0.00772
G1 X171.593 Y44.788 E0.00613
G1 X171.707 Y44.895 E0.00492
G1 X171.838 Y44.965 E0.00465
G1 X172.005 Y45.002 E0.00536
G1 X172.248 Y44.995 E0.00762
G1 X172.382 Y44.950 E0.00444
G1 X172.495 Y44.863 E0.00446
G1 X172.618 Y44.709 E0.00619
G1 X172.735 Y44.487 E0.00788
