; generated by PrusaSlicer 2.2.0+ on 2020-05-05 at 17:05:52 UTC

; 

; external perimeters extrusion width = 0.60mm
; perimeters extrusion width = 0.50mm
; infill extrusion width = 0.50mm
; solid infill extrusion width = 0.50mm
; top infill extrusion width = 0.45mm
; first layer extrusion width = 0.42mm

M73 P0 R215
M73 Q0 S218
M201 X1000 Y1000 Z1000 E5000 ; sets maximum accelerations, mm/sec^2
M203 X200 Y200 Z12 E120 ; sets maximum feedrates, mm/sec
M204 P1250 R1250 T1250 ; sets acceleration (P, T) and retract acceleration (R), mm/sec^2
M205 X8.00 Y8.00 Z0.40 E4.50 ; sets the jerk limits, mm/sec
M205 S0 T0 ; sets the minimum extruding and travel feed rate, mm/sec
M107
M862.3 P "MK3S" ; printer model check
M862.1 P0.4 ; nozzle diameter check
M115 U3.8.1 ; tell printer latest fw version
G90 ; use absolute coordinates
M83 ; extruder relative mode
M104 S215 ; set extruder temp
M140 S70 ; set bed temp
M190 S70 ; wait for bed temp
M109 S215 ; wait for extruder temp
G28 W ; home all without mesh bed level
G80 ; mesh bed leveling
G1 Y-3.0 F1000.0 ; go outside print area
G92 E0.0
G1 X60.0 E9.0 F1000.0 ; intro line
M73 Q0 S218
M73 P0 R215
G1 X100.0 E12.5 F1000.0 ; intro line
G92 E0.0
M221 S95
G21 ; set units to millimeters
G90 ; use absolute coordinates
M83 ; use relative distances for extrusion
M900 K30 ; Filament gcode
;BEFORE_LAYER_CHANGE
G92 E0.0
;0.2


G1 E-0.80000 F2100.00000
G1 Z0.600 F10800.000
;AFTER_LAYER_CHANGE
;0.2
G1 X132.985 Y9.947
G1 Z0.200
G1 E0.80000 F2100.00000
M204 S1000
G1 F1200.000
G1 X133.897 Y9.759 E0.02919
G1 X229.917 Y9.759 E3.01064
G1 X230.819 Y9.938 E0.02884
G1 X231.583 Y10.444 E0.02872
G1 X232.099 Y11.201 E0.02872
G1 X232.290 Y12.097 E0.02872
G1 X232.290 Y108.151 E3.01172
G1 X232.111 Y109.042 E0.02849
G1 X231.613 Y109.797 E0.02837
G1 X230.834 Y110.327 E0.02954
G1 X229.913 Y110.513 E0.02946
G1 X133.898 Y110.513 E3.01049
G1 X133.008 Y110.334 E0.02849
G1 X132.252 Y109.836 E0.02837
G1 X131.722 Y109.057 E0.02954
G1 X131.536 Y108.136 E0.02946
G1 X131.536 Y12.121 E3.01049
G1 X131.716 Y11.230 E0.02849
G1 X132.213 Y10.474 E0.02837
G1 X132.936 Y9.981 E0.02743
G1 X133.067 Y10.624 F10800.000
G1 F1200.000
G1 X133.612 Y10.439 E0.01806
G1 X230.237 Y10.443 E3.02961
G1 X230.476 Y10.498 E0.00767
G1 X230.796 Y10.649 E0.01109
G1 X231.314 Y11.137 E0.02233
G1 X231.470 Y11.378 E0.00898
G1 X231.610 Y11.834 E0.01495
G1 X231.610 Y108.438 E3.02897
G1 X231.470 Y108.894 E0.01496
G1 X231.316 Y109.134 E0.00892
G1 X230.910 Y109.539 E0.01800
G1 X230.760 Y109.648 E0.00579
G1 X230.215 Y109.833 E0.01806
G1 X133.611 Y109.833 E3.02893
G1 X133.155 Y109.692 E0.01496
G1 X132.916 Y109.538 E0.00892
G1 X132.510 Y109.132 E0.01800
G1 X132.402 Y108.982 E0.00579
G1 X132.217 Y108.437 E0.01806
G1 X132.217 Y11.834 E3.02893
G1 X132.357 Y11.378 E0.01496
G1 X132.511 Y11.138 E0.00892
G1 X132.917 Y10.732 E0.01800
G1 X133.018 Y10.659 E0.00391
G1 X133.261 Y10.948 F10800.000
G1 F1200.000
G1 X133.644 Y10.816 E0.01270
G1 X230.215 Y10.820 E3.02792
G1 X230.332 Y10.847 E0.00377
G1 X230.605 Y10.976 E0.00947
G1 X231.037 Y11.393 E0.01880
G1 X231.120 Y11.521 E0.00479
G1 X231.233 Y11.865 E0.01136
G1 X231.233 Y108.407 E3.02699
G1 X231.120 Y108.751 E0.01136
G1 X231.036 Y108.880 E0.00484
G1 X230.655 Y109.260 E0.01686
G1 X230.565 Y109.324 E0.00345
G1 X230.183 Y109.456 E0.01270
G1 X133.643 Y109.456 E3.02694
G1 X133.298 Y109.343 E0.01136
G1 X133.169 Y109.258 E0.00484
G1 X132.789 Y108.878 E0.01686
G1 X132.726 Y108.788 E0.00345
G1 X132.594 Y108.405 E0.01270
G1 X132.594 Y11.865 E3.02694
M73 Q0 S217
M73 P0 R214
G1 X132.707 Y11.521 E0.01136
G1 X132.791 Y11.392 E0.00484
G1 X133.212 Y10.983 E0.01841
G1 X133.450 Y11.275 F10800.000
G1 F1200.000
G1 X133.678 Y11.193 E0.00757
G1 X230.163 Y11.193 E3.02523
G1 X230.413 Y11.303 E0.00856
G1 X230.757 Y11.646 E0.01522
G1 X230.856 Y11.900 E0.00856
G1 X230.856 Y108.372 E3.02479
G1 X230.757 Y108.626 E0.00856
G1 X230.403 Y108.979 E0.01566
G1 X230.149 Y109.079 E0.00856
G1 X133.678 Y109.079 E3.02479
G1 X133.423 Y108.979 E0.00856
G1 X133.070 Y108.626 E0.01566
G1 X132.971 Y108.372 E0.00856
G1 X132.971 Y11.900 E3.02479
G1 X133.070 Y11.646 E0.00856
G1 X133.404 Y11.312 E0.01480
G1 X133.650 Y11.599 F10800.000
G1 F1200.000
G1 X133.720 Y11.570 E0.00235
G1 X230.107 Y11.570 E3.02216
G1 X230.176 Y11.599 E0.00235
G1 X230.450 Y11.873 E0.01215
G1 X230.479 Y11.942 E0.00235
G1 X230.479 Y108.330 E3.02216
G1 X230.450 Y108.399 E0.00235
G1 X230.176 Y108.673 E0.01215
G1 X230.107 Y108.702 E0.00235
G1 X133.720 Y108.702 E3.02216
G1 X133.650 Y108.673 E0.00235
G1 X133.377 Y108.399 E0.01215
G1 X133.348 Y108.330 E0.00235
G1 X133.348 Y11.942 E3.02216
G1 X133.377 Y11.873 E0.00235
G1 X133.608 Y11.641 E0.01027
G1 X133.835 Y11.947 F10800.000
G1 F1200.000
G1 X229.992 Y11.947 E3.01491
G1 X230.102 Y12.058 E0.00490
G1 X230.102 Y108.214 E3.01491
G1 X229.992 Y108.324 E0.00490
G1 X133.835 Y108.324 E3.01491
G1 X133.725 Y108.214 E0.00490
G1 X133.725 Y12.058 E3.01491
G1 X133.793 Y11.990 E0.00302
G1 X134.323 Y12.546 F10800.000
G1 F1200.000
G1 X229.503 Y12.546 E2.98430
M73 Q0 S216
M73 P1 R213
G1 X229.503 Y107.726 E2.98430
G1 X134.323 Y107.726 E2.98430
G1 X134.323 Y12.606 E2.98242
G1 X134.710 Y12.649 F10800.000
G1 X134.701 Y12.923
G1 F1200.000
G1 X229.126 Y12.923 E2.96066
G1 X229.126 Y107.349 E2.96066
G1 X134.701 Y107.349 E2.96066
G1 X134.701 Y12.983 E2.95877
G1 F8640.000
G1 X137.992 Y12.981 E-0.76000
G1 E-0.04000 F2100.00000
G1 Z0.800 F10800.000
G1 X171.302 Y19.489
G1 Z0.200
G1 E0.80000 F2100.00000
G1 F1200.000
G1 X171.389 Y19.058 E0.01379
G1 X171.519 Y18.637 E0.01379
G1 X171.690 Y18.232 E0.01379
G1 X171.900 Y17.846 E0.01379
G1 X172.148 Y17.483 E0.01379
G1 X172.430 Y17.146 E0.01378
G1 X172.745 Y16.839 E0.01379
G1 X173.089 Y16.565 E0.01378
G1 X173.458 Y16.326 E0.01379
G1 X173.850 Y16.126 E0.01379
G1 X174.259 Y15.965 E0.01379
G1 X174.682 Y15.846 E0.01378
G1 X175.115 Y15.770 E0.01379
G1 X175.554 Y15.737 E0.01379
G1 X175.993 Y15.748 E0.01379
G1 X176.429 Y15.802 E0.01379
G1 X176.858 Y15.900 E0.01379
G1 X177.275 Y16.040 E0.01379
G1 X177.676 Y16.221 E0.01378
G1 X178.056 Y16.441 E0.01379
G1 X178.413 Y16.698 E0.01379
G1 X178.743 Y16.989 E0.01378
G1 X179.042 Y17.311 E0.01379
G1 X179.308 Y17.661 E0.01379
G1 X179.537 Y18.037 E0.01379
G1 X179.728 Y18.433 E0.01379
G1 X179.878 Y18.846 E0.01379
G1 X179.987 Y19.272 E0.01379
G1 X180.052 Y19.707 E0.01379
G1 X180.074 Y20.146 E0.01379
G1 X180.052 Y20.585 E0.01379
G1 X179.987 Y21.020 E0.01379
G1 X179.878 Y21.446 E0.01379
G1 X179.728 Y21.859 E0.01379
G1 X179.537 Y22.255 E0.01379
G1 X179.308 Y22.630 E0.01379
G1 X179.042 Y22.981 E0.01379
G1 X178.743 Y23.303 E0.01379
G1 X178.413 Y23.594 E0.01378
G1 X178.056 Y23.851 E0.01379
G1 X177.676 Y24.071 E0.01379
G1 X177.275 Y24.252 E0.01378
G1 X176.858 Y24.392 E0.01379
G1 X176.429 Y24.489 E0.01379
G1 X175.993 Y24.544 E0.01379
G1 X175.554 Y24.555 E0.01379
G1 X175.115 Y24.522 E0.01379
G1 X174.682 Y24.446 E0.01379
G1 X174.259 Y24.327 E0.01378
G1 X173.850 Y24.166 E0.01379
G1 X173.458 Y23.966 E0.01379
G1 X173.089 Y23.727 E0.01379
G1 X172.745 Y23.453 E0.01379
G1 X172.430 Y23.146 E0.01379
G1 X172.148 Y22.809 E0.01379
G1 X171.900 Y22.446 E0.01379
G1 X171.690 Y22.060 E0.01379
G1 X171.519 Y21.654 E0.01379
G1 X171.389 Y21.234 E0.01379
G1 X171.302 Y20.803 E0.01379
G1 X171.258 Y20.366 E0.01379
G1 X171.258 Y19.926 E0.01379
G1 X171.296 Y19.548 E0.01190
G1 X170.989 Y19.239 F10800.000
G1 X170.921 Y19.511
G1 F1200.000
G1 X171.023 Y18.965 E0.01743
G1 X171.164 Y18.508 E0.01497
G1 X171.350 Y18.069 E0.01497
G1 X171.578 Y17.649 E0.01497
G1 X171.847 Y17.255 E0.01497
G1 X172.154 Y16.889 E0.01496
G1 X172.495 Y16.556 E0.01497
G1 X172.868 Y16.258 E0.01496
G1 X173.269 Y15.999 E0.01497
G1 X173.694 Y15.782 E0.01497
G1 X174.139 Y15.607 E0.01497
G1 X174.598 Y15.478 E0.01496
G1 X175.068 Y15.395 E0.01497
G1 X175.544 Y15.359 E0.01497
G1 X176.021 Y15.371 E0.01497
G1 X176.495 Y15.431 E0.01497
G1 X176.960 Y15.537 E0.01497
G1 X177.413 Y15.689 E0.01497
G1 X177.848 Y15.885 E0.01496
G1 X178.261 Y16.124 E0.01497
G1 X178.649 Y16.403 E0.01497
G1 X179.007 Y16.718 E0.01496
G1 X179.331 Y17.068 E0.01497
G1 X179.620 Y17.449 E0.01497
G1 X179.868 Y17.856 E0.01497
G1 X180.076 Y18.286 E0.01497
G1 X180.239 Y18.735 E0.01497
G1 X180.357 Y19.197 E0.01497
G1 X180.428 Y19.669 E0.01497
G1 X180.452 Y20.146 E0.01497
G1 X180.428 Y20.623 E0.01497
G1 X180.357 Y21.095 E0.01497
G1 X180.239 Y21.557 E0.01497
G1 X180.076 Y22.006 E0.01497
G1 X179.868 Y22.436 E0.01496
G1 X179.620 Y22.843 E0.01497
G1 X179.331 Y23.224 E0.01497
G1 X179.007 Y23.574 E0.01497
G1 X178.649 Y23.889 E0.01496
G1 X178.261 Y24.168 E0.01497
G1 X177.848 Y24.407 E0.01497
G1 X177.413 Y24.603 E0.01496
G1 X176.960 Y24.755 E0.01497
G1 X176.495 Y24.861 E0.01497
G1 X176.021 Y24.921 E0.01496
G1 X175.544 Y24.933 E0.01497
G1 X175.068 Y24.897 E0.01497
G1 X174.598 Y24.814 E0.01497
G1 X174.139 Y24.685 E0.01496
G1 X173.694 Y24.510 E0.01496
G1 X173.270 Y24.293 E0.01497
G1 X172.868 Y24.034 E0.01497
G1 X172.495 Y23.736 E0.01497
G1 X172.154 Y23.403 E0.01496
G1 X171.847 Y23.037 E0.01497
G1 X171.578 Y22.643 E0.01497
G1 X171.350 Y22.223 E0.01497
G1 X171.164 Y21.784 E0.01497
G1 X171.023 Y21.327 E0.01497
G1 X170.929 Y20.860 E0.01497
G1 X170.881 Y20.385 E0.01497
G1 X170.881 Y19.907 E0.01497
G1 X170.915 Y19.570 E0.01061
G1 F8640.000
G1 X171.023 Y18.965 E-0.14214
G1 X171.164 Y18.508 E-0.11022
G1 X171.350 Y18.069 E-0.11022
G1 X171.578 Y17.649 E-0.11023
G1 X171.847 Y17.255 E-0.11023
G1 X172.154 Y16.889 E-0.11020
G1 X172.361 Y16.687 E-0.06676
G1 E-0.04000 F2100.00000
G1 Z0.800 F10800.000
G1 X175.554 Y95.727
G1 Z0.200
G1 E0.80000 F2100.00000
G1 F1200.000
G1 X175.993 Y95.738 E0.01379
G1 X176.429 Y95.792 E0.01379
G1 X176.858 Y95.890 E0.01379
G1 X177.275 Y96.030 E0.01379
G1 X177.676 Y96.211 E0.01378
G1 X178.056 Y96.431 E0.01379
G1 X178.413 Y96.688 E0.01379
G1 X178.743 Y96.979 E0.01378
G1 X179.042 Y97.301 E0.01379
G1 X179.308 Y97.651 E0.01379
G1 X179.537 Y98.027 E0.01379
G1 X179.728 Y98.423 E0.01379
G1 X179.878 Y98.836 E0.01379
G1 X179.987 Y99.262 E0.01379
G1 X180.052 Y99.697 E0.01379
G1 X180.074 Y100.136 E0.01379
G1 X180.052 Y100.575 E0.01379
G1 X179.987 Y101.010 E0.01379
G1 X179.878 Y101.436 E0.01379
G1 X179.728 Y101.849 E0.01379
G1 X179.537 Y102.245 E0.01379
G1 X179.308 Y102.620 E0.01379
G1 X179.042 Y102.971 E0.01379
G1 X178.743 Y103.293 E0.01379
G1 X178.413 Y103.584 E0.01378
G1 X178.056 Y103.841 E0.01379
G1 X177.676 Y104.061 E0.01379
G1 X177.275 Y104.242 E0.01378
G1 X176.858 Y104.382 E0.01379
G1 X176.429 Y104.479 E0.01379
G1 X175.993 Y104.534 E0.01379
G1 X175.554 Y104.545 E0.01379
G1 X175.115 Y104.512 E0.01379
G1 X174.682 Y104.436 E0.01379
G1 X174.259 Y104.317 E0.01378
G1 X173.850 Y104.156 E0.01379
G1 X173.458 Y103.956 E0.01379
G1 X173.089 Y103.717 E0.01379
G1 X172.745 Y103.443 E0.01378
G1 X172.430 Y103.136 E0.01379
G1 X172.148 Y102.799 E0.01379
G1 X171.900 Y102.436 E0.01379
G1 X171.690 Y102.050 E0.01379
G1 X171.519 Y101.644 E0.01379
G1 X171.389 Y101.224 E0.01379
G1 X171.302 Y100.793 E0.01378
G1 X171.258 Y100.356 E0.01379
G1 X171.258 Y99.916 E0.01379
G1 X171.302 Y99.479 E0.01379
G1 X171.389 Y99.048 E0.01378
G1 X171.519 Y98.627 E0.01379
G1 X171.690 Y98.222 E0.01378
G1 X171.900 Y97.836 E0.01379
G1 X172.148 Y97.473 E0.01379
G1 X172.430 Y97.136 E0.01379
G1 X172.745 Y96.829 E0.01379
G1 X173.089 Y96.555 E0.01378
G1 X173.458 Y96.316 E0.01379
G1 X173.850 Y96.116 E0.01379
G1 X174.259 Y95.955 E0.01379
G1 X174.682 Y95.836 E0.01378
G1 X175.115 Y95.760 E0.01379
G1 X175.494 Y95.731 E0.01191
G1 X175.745 Y95.375 F10800.000
G1 X175.466 Y95.355
G1 F1200.000
G1 X176.021 Y95.361 E0.01743
G1 X176.495 Y95.421 E0.01496
G1 X176.960 Y95.527 E0.01497
G1 X177.413 Y95.679 E0.01497
G1 X177.848 Y95.875 E0.01496
G1 X178.261 Y96.114 E0.01497
G1 X178.649 Y96.393 E0.01497
G1 X179.007 Y96.708 E0.01496
G1 X179.331 Y97.058 E0.01497
G1 X179.620 Y97.439 E0.01497
G1 X179.868 Y97.846 E0.01497
G1 X180.076 Y98.276 E0.01496
G1 X180.239 Y98.725 E0.01496
G1 X180.357 Y99.187 E0.01497
G1 X180.428 Y99.659 E0.01497
G1 X180.452 Y100.136 E0.01497
G1 X180.428 Y100.613 E0.01497
G1 X180.357 Y101.085 E0.01497
G1 X180.239 Y101.547 E0.01497
G1 X180.076 Y101.996 E0.01496
G1 X179.868 Y102.426 E0.01496
G1 X179.620 Y102.833 E0.01497
G1 X179.331 Y103.214 E0.01497
G1 X179.007 Y103.564 E0.01497
G1 X178.649 Y103.879 E0.01496
G1 X178.261 Y104.158 E0.01497
G1 X177.848 Y104.397 E0.01497
G1 X177.413 Y104.593 E0.01496
G1 X176.960 Y104.745 E0.01497
G1 X176.495 Y104.851 E0.01497
G1 X176.021 Y104.911 E0.01496
G1 X175.544 Y104.923 E0.01497
G1 X175.068 Y104.887 E0.01497
G1 X174.598 Y104.804 E0.01497
G1 X174.139 Y104.675 E0.01496
G1 X173.694 Y104.500 E0.01497
G1 X173.269 Y104.283 E0.01497
G1 X172.868 Y104.023 E0.01497
G1 X172.495 Y103.726 E0.01496
G1 X172.154 Y103.393 E0.01497
G1 X171.847 Y103.027 E0.01497
G1 X171.578 Y102.633 E0.01497
G1 X171.350 Y102.213 E0.01497
G1 X171.164 Y101.774 E0.01497
G1 X171.023 Y101.317 E0.01497
G1 X170.929 Y100.850 E0.01496
G1 X170.881 Y100.375 E0.01497
G1 X170.881 Y99.897 E0.01497
G1 X170.929 Y99.422 E0.01497
G1 X171.023 Y98.955 E0.01496
G1 X171.164 Y98.498 E0.01497
G1 X171.350 Y98.059 E0.01497
G1 X171.578 Y97.639 E0.01497
G1 X171.847 Y97.245 E0.01497
G1 X172.154 Y96.879 E0.01497
G1 X172.495 Y96.546 E0.01497
G1 X172.868 Y96.248 E0.01496
G1 X173.269 Y95.989 E0.01497
G1 X173.694 Y95.772 E0.01497
G1 X174.139 Y95.597 E0.01497
G1 X174.598 Y95.468 E0.01496
G1 X175.068 Y95.385 E0.01497
G1 X175.406 Y95.360 E0.01062
G1 F8640.000
G1 X176.021 Y95.361 E-0.14215
G1 X176.495 Y95.421 E-0.11020
G1 X176.960 Y95.527 E-0.11022
G1 X177.413 Y95.679 E-0.11023
G1 X177.848 Y95.875 E-0.11020
G1 X178.261 Y96.114 E-0.11022
G1 X178.496 Y96.283 E-0.06678
G1 E-0.04000 F2100.00000
G1 Z0.800 F10800.000
G1 X175.087 Y107.236
G1 Z0.200
G1 E0.80000 F2100.00000
G1 F1200.000
G1 X134.983 Y67.132 E1.78044
G1 X134.983 Y67.666 E0.01676
G1 X174.383 Y107.066 E1.74920
G1 X173.850 Y107.066 E0.01676
G1 X134.983 Y68.200 E1.72550
G1 X134.983 Y68.734 E0.01676
G1 X173.316 Y107.066 E1.70179
G1 X172.782 Y107.066 E0.01676
G1 X134.983 Y69.268 E1.67809
G1 X134.983 Y69.802 E0.01676
G1 X172.248 Y107.066 E1.65439
G1 X171.714 Y107.066 E0.01676
G1 X134.983 Y70.336 E1.63068
M73 Q1 S215
M73 P1 R212
G1 X134.983 Y70.869 E0.01676
G1 X171.180 Y107.066 E1.60698
G1 X170.646 Y107.066 E0.01676
G1 X134.983 Y71.403 E1.58327
G1 X134.983 Y71.937 E0.01676
G1 X170.112 Y107.066 E1.55957
G1 X169.578 Y107.066 E0.01676
G1 X134.983 Y72.471 E1.53587
G1 X134.983 Y73.005 E0.01676
G1 X169.044 Y107.066 E1.51216
G1 X168.510 Y107.066 E0.01676
G1 X134.983 Y73.539 E1.48846
G1 X134.983 Y74.073 E0.01676
G1 X167.976 Y107.066 E1.46476
G1 X167.443 Y107.066 E0.01676
G1 X134.983 Y74.607 E1.44105
G1 X134.983 Y75.141 E0.01676
G1 X166.909 Y107.066 E1.41735
G1 X166.375 Y107.066 E0.01676
G1 X134.983 Y75.675 E1.39364
G1 X134.983 Y76.209 E0.01676
G1 X165.841 Y107.066 E1.36994
G1 X165.307 Y107.066 E0.01676
G1 X134.983 Y76.743 E1.34624
G1 X134.983 Y77.277 E0.01676
G1 X164.773 Y107.066 E1.32253
G1 X164.239 Y107.066 E0.01676
G1 X134.983 Y77.810 E1.29883
G1 X134.983 Y78.344 E0.01676
G1 X163.705 Y107.066 E1.27512
G1 X163.171 Y107.066 E0.01676
G1 X134.983 Y78.878 E1.25142
G1 X134.983 Y79.412 E0.01676
G1 X162.637 Y107.066 E1.22772
G1 X162.103 Y107.066 E0.01676
G1 X134.983 Y79.946 E1.20401
G1 X134.983 Y80.480 E0.01676
G1 X161.569 Y107.066 E1.18031
G1 X161.035 Y107.066 E0.01676
G1 X134.983 Y81.014 E1.15660
G1 X134.983 Y81.548 E0.01676
G1 X160.502 Y107.066 E1.13290
G1 X159.968 Y107.066 E0.01676
G1 X134.983 Y82.082 E1.10920
G1 X134.983 Y82.616 E0.01676
G1 X159.434 Y107.066 E1.08549
G1 X158.900 Y107.066 E0.01676
G1 X134.983 Y83.150 E1.06179
G1 X134.983 Y83.684 E0.01676
G1 X158.366 Y107.066 E1.03809
G1 X157.832 Y107.066 E0.01676
G1 X134.983 Y84.218 E1.01438
G1 X134.983 Y84.751 E0.01676
G1 X157.298 Y107.066 E0.99068
G1 X156.764 Y107.066 E0.01676
G1 X134.983 Y85.285 E0.96697
G1 X134.983 Y85.819 E0.01676
G1 X156.230 Y107.066 E0.94327
G1 X155.696 Y107.066 E0.01676
M73 Q1 S214
M73 P1 R211
G1 X134.983 Y86.353 E0.91957
G1 X134.983 Y86.887 E0.01676
G1 X155.162 Y107.066 E0.89586
G1 X154.628 Y107.066 E0.01676
G1 X134.983 Y87.421 E0.87216
G1 X134.983 Y87.955 E0.01676
G1 X154.094 Y107.066 E0.84845
